actions/22x22-light/layer-previous.svg

<svg xmlns="http://www.w3.org/2000/svg" viewBox="0 0 22 22">
 <defs id="defs3051">
   <style type="text/css" id="current-color-scheme">
     .ColorScheme-Text {
       color:#4d4d4d;
     }
     </style>
 </defs>
   <path
      style="fill:currentColor;fill-opacity:1;stroke:none"
      d="m11 1.701172-8.4335939 4.2167968 8.4335939 4.2167972 8.433594-4.2167972zm-6.0839845 13.205078-2.3496094 1.175781 8.4335939 4.216797 8.433594-4.216797-2.34961-1.175781-6.083984 3.042969z"
      class="ColorScheme-Text" />
 <defs id="defs3051">
   <style type="text/css" id="current-color-scheme">
     .ColorScheme-Text {
       color:#3daee9;
     }
     </style>
 </defs>
   <path
      style="fill:currentColor;fill-opacity:1;stroke:none"
      d="m7.5722656 11c-.2016952-.000016-.4040646.076-.5566406.228516-.3052835.305104-.3052936.808138 0 1.113281l3.427734 3.427734c.152542.152517.355726.230469.556641.230469.200759 0 .404069-.07797.556641-.230469l3.427734-3.427734c.152597-.152598.228518-.354914.228516-.556641-.000001-.201725-.075888-.404078-.228516-.55664-.305134-.305134-.806124-.305081-1.111328 0l-2.873047 2.873046-2.8730469-2.873046c-.1525461-.152559-.3529922-.2285-.5546875-.228516z"
      class="ColorScheme-Text" />
</svg>

<svg xmlns="http://www.w3.org/2000/svg" viewBox="0 0 22 22">
  <defs id="defs3051">
    <style type="text/css" id="current-color-scheme">
      .ColorScheme-Text {
        color:#4d4d4d;
      }
      .ColorScheme-Highlight {
        color:#3daee9;
      }
      </style>
  </defs>
 <path 
     style="fill:currentColor;fill-opacity:1;stroke:none" 
     d="M 11,1.701172 2.5664061,5.9179688 11,10.134766 19.433594,5.9179688 11,1.701172 Z M 4.9160155,14.90625 2.5664061,16.082031 11,20.298828 19.433594,16.082031 17.083984,14.90625 11,17.949219 4.9160155,14.90625 Z"
     class="ColorScheme-Text"
     />
 <path 
     style="fill:currentColor;fill-opacity:1;stroke:none" 
     class="ColorScheme-Highlight"
     d="M 7.5722656 11 C 7.3705704 10.999984 7.168201 11.076 7.015625 11.228516 C 6.7103415 11.53362 6.7103314 12.036654 7.015625 12.341797 L 10.443359 15.769531 C 10.595901 15.922048 10.799085 16 11 16 C 11.200759 16 11.404069 15.92203 11.556641 15.769531 L 14.984375 12.341797 C 15.136972 12.189199 15.212893 11.986883 15.212891 11.785156 C 15.21289 11.583431 15.137003 11.381078 14.984375 11.228516 C 14.679241 10.923382 14.178251 10.923435 13.873047 11.228516 L 11 14.101562 L 8.1269531 11.228516 C 7.974407 11.075957 7.7739609 11.000016 7.5722656 11 z "
     />
</svg>
